X:1
T:The Letter Edged in Black
M:4/4
L:1/8
K:D
 D3/2 E/2| F3/2 F/2 =F3/2 ^F/2 G3/2 F/2 E3.99999962500005/5.99999925000009 E3.99999962500005/5.99999925000009 D3.99999962500005/5.99999925000009|\
 A2 C2 z AA A| _B2 A2 =BA E=F| ^F4 z2| AA| d3/2 d/2 dd F/2 F3/2 G3/2 F/2|\
 E2 B2 z2d-d| cB A^G =GC F3/2 E/2| D6||
